Komodo/apps/scalable/deluge.svg

<?xml version="1.0" encoding="UTF-8" standalone="no"?>
<!-- Created with Inkscape (http://www.inkscape.org/) -->

<svg
   xmlns:dc="http://purl.org/dc/elements/1.1/"
   xmlns:cc="http://creativecommons.org/ns#"
   xmlns:rdf="http://www.w3.org/1999/02/22-rdf-syntax-ns#"
   xmlns:svg="http://www.w3.org/2000/svg"
   xmlns="http://www.w3.org/2000/svg"
   xmlns:xlink="http://www.w3.org/1999/xlink"
   xmlns:sodipodi="http://sodipodi.sourceforge.net/DTD/sodipodi-0.dtd"
   xmlns:inkscape="http://www.inkscape.org/namespaces/inkscape"
   width="96"
   height="96"
   id="svg11037"
   version="1.1"
   inkscape:version="0.48.3.1 r9886"
   sodipodi:docname="deluge.svg">
  <defs
     id="defs11039">
    <linearGradient
       y2="1046.1001"
       x2="47.999954"
       y1="962.62189"
       x1="47.999954"
       gradientTransform="matrix(1.15,0,0,1.15,-7.1999462,-150.65291)"
       gradientUnits="userSpaceOnUse"
       id="linearGradient3886"
       xlink:href="#linearGradient3795"
       inkscape:collect="always" />
    <linearGradient
       id="linearGradient3795">
      <stop
         style="stop-color:#13a6fd;stop-opacity:1;"
         offset="0"
         id="stop3797" />
      <stop
         style="stop-color:#2975b6;stop-opacity:1;"
         offset="1"
         id="stop3799" />
    </linearGradient>
    <linearGradient
       y2="1046.1001"
       x2="47.999954"
       y1="962.62189"
       x1="47.999954"
       gradientTransform="matrix(1.15,0,0,1.15,-7.1999462,-150.65292)"
       gradientUnits="userSpaceOnUse"
       id="linearGradient11642"
       xlink:href="#linearGradient12028"
       inkscape:collect="always" />
    <linearGradient
       x1="48"
       y1="90"
       x2="48"
       y2="5.9877172"
       id="linearGradient3617"
       xlink:href="#linearGradient3700"
       gradientUnits="userSpaceOnUse"
       gradientTransform="translate(4.0677966,89.084746)" />
    <linearGradient
       id="linearGradient3700">
      <stop
         id="stop3702"
         style="stop-color:#667981;stop-opacity:1"
         offset="0" />
      <stop
         id="stop3704"
         style="stop-color:#a4b2b8;stop-opacity:1"
         offset="1" />
    </linearGradient>
    <radialGradient
       cx="48"
       cy="58.666668"
       r="16"
       fx="48"
       fy="58.666668"
       id="radialGradient3723"
       xlink:href="#linearGradient3717"
       gradientUnits="userSpaceOnUse"
       gradientTransform="matrix(1,0,0,1.5,0,-24)" />
    <linearGradient
       id="linearGradient3717">
      <stop
         id="stop3719"
         style="stop-color:#ffffff;stop-opacity:1"
         offset="0" />
      <stop
         id="stop3721"
         style="stop-color:#93a3aa;stop-opacity:1"
         offset="1" />
    </linearGradient>
    <linearGradient
       x1="48.353294"
       y1="24.342234"
       x2="48.353294"
       y2="46.270821"
       id="linearGradient3789"
       xlink:href="#linearGradient3782"
       gradientUnits="userSpaceOnUse" />
    <linearGradient
       id="linearGradient3782">
      <stop
         id="stop3784"
         style="stop-color:#697c84;stop-opacity:1"
         offset="0" />
      <stop
         id="stop3786"
         style="stop-color:#697c84;stop-opacity:0"
         offset="1" />
    </linearGradient>
    <linearGradient
       x1="41.646389"
       y1="71.088478"
       x2="41.864433"
       y2="22.682728"
       id="linearGradient3750"
       xlink:href="#linearGradient3744"
       gradientUnits="userSpaceOnUse" />
    <linearGradient
       id="linearGradient3744">
      <stop
         id="stop3746"
         style="stop-color:#ffffff;stop-opacity:1"
         offset="0" />
      <stop
         id="stop3748"
         style="stop-color:#ffffff;stop-opacity:0"
         offset="1" />
    </linearGradient>
    <radialGradient
       cx="55.598351"
       cy="46.454388"
       r="2.6136763"
       fx="55.598351"
       fy="46.454388"
       id="radialGradient3762"
       xlink:href="#linearGradient3756"
       gradientUnits="userSpaceOnUse"
       gradientTransform="matrix(0.94969259,-0.31318364,1.2096513,3.6681255,-53.396602,-103.87465)" />
    <linearGradient
       id="linearGradient3756">
      <stop
         id="stop3758"
         style="stop-color:#ffffff;stop-opacity:1"
         offset="0" />
      <stop
         id="stop3760"
         style="stop-color:#ffffff;stop-opacity:0"
         offset="1" />
    </linearGradient>
    <radialGradient
       cx="55.598351"
       cy="46.454388"
       r="2.6136763"
       fx="55.598351"
       fy="46.454388"
       id="radialGradient3776"
       xlink:href="#linearGradient3756"
       gradientUnits="userSpaceOnUse"
       gradientTransform="matrix(0.39510098,-0.13029391,0.5032517,1.5260517,6.3824423,-26.002402)" />
    <linearGradient
       id="linearGradient3151">
      <stop
         id="stop3153"
         style="stop-color:#ffffff;stop-opacity:1"
         offset="0" />
      <stop
         id="stop3155"
         style="stop-color:#ffffff;stop-opacity:0"
         offset="1" />
    </linearGradient>
    <radialGradient
       r="2.6136763"
       fy="46.454388"
       fx="55.598351"
       cy="46.454388"
       cx="55.598351"
       gradientTransform="matrix(0.39510098,-0.13029391,0.5032517,1.5260517,6.3824423,-26.002402)"
       gradientUnits="userSpaceOnUse"
       id="radialGradient3168"
       xlink:href="#linearGradient3756"
       inkscape:collect="always" />
    <linearGradient
       id="linearGradient12028"
       y2="902.35999"
       gradientUnits="userSpaceOnUse"
       x2="48"
       gradientTransform="translate(72,-2.4406858)"
       y1="1052.4"
       x1="48">
      <stop
         id="stop3702-08"
         style="stop-color:#2d2d2d"
         offset="0" />
      <stop
         id="stop3704-1"
         style="stop-color:#6b6b6b"
         offset="1" />
    </linearGradient>
    <linearGradient
       y2="902.35999"
       x2="48"
       y1="1052.4"
       x1="48"
       gradientTransform="translate(-113.91245,-24.223729)"
       gradientUnits="userSpaceOnUse"
       id="linearGradient3040"
       xlink:href="#linearGradient12028"
       inkscape:collect="always" />
    <clipPath
       clipPathUnits="userSpaceOnUse"
       id="clipPath3009">
      <path
         id="path3011"
         d="m -2,956.36218 -96,0 0,33.5624 96,25.68742 0,-59.24982 z"
         style="opacity:0.15;fill:#ffffff;fill-opacity:1;stroke:none"
         inkscape:connector-curvature="0" />
    </clipPath>
  </defs>
  <sodipodi:namedview
     id="base"
     pagecolor="#ffffff"
     bordercolor="#666666"
     borderopacity="1.0"
     inkscape:pageopacity="0.0"
     inkscape:pageshadow="2"
     inkscape:zoom="3.959798"
     inkscape:cx="33.538031"
     inkscape:cy="49.863109"
     inkscape:document-units="px"
     inkscape:current-layer="layer1"
     showgrid="false"
     inkscape:window-width="1280"
     inkscape:window-height="750"
     inkscape:window-x="0"
     inkscape:window-y="22"
     inkscape:window-maximized="1"
     showguides="true"
     inkscape:guide-bbox="true">
    <sodipodi:guide
       orientation="0,1"
       position="-24.748737,0"
       id="guide11064" />
    <sodipodi:guide
       orientation="0,1"
       position="-23.233509,96"
       id="guide11066" />
    <sodipodi:guide
       orientation="1,0"
       position="0,54.800776"
       id="guide11068" />
    <sodipodi:guide
       orientation="1,0"
       position="96,51.012704"
       id="guide11070" />
    <sodipodi:guide
       orientation="0,1"
       position="-18.94036,48"
       id="guide11072" />
    <sodipodi:guide
       orientation="1,0"
       position="48,79.296975"
       id="guide11074" />
    <sodipodi:guide
       orientation="1,0"
       position="2,75.508903"
       id="guide11076" />
    <sodipodi:guide
       orientation="0,1"
       position="-77.27667,2"
       id="guide11078" />
    <sodipodi:guide
       orientation="1,0"
       position="94,77.781746"
       id="guide11080" />
    <sodipodi:guide
       orientation="0,1"
       position="-65.912454,94"
       id="guide11082" />
  </sodipodi:namedview>
  <metadata
     id="metadata11042">
    <rdf:RDF>
      <cc:Work
         rdf:about="">
        <dc:format>image/svg+xml</dc:format>
        <dc:type
           rdf:resource="http://purl.org/dc/dcmitype/StillImage" />
        <dc:title />
      </cc:Work>
    </rdf:RDF>
  </metadata>
  <g
     inkscape:label="Layer 1"
     inkscape:groupmode="layer"
     id="layer1"
     transform="translate(0,-956.36218)">
    <rect
       x="2"
       y="958.36218"
       width="92"
       height="92"
       style="fill:url(#linearGradient11642);fill-opacity:1.0"
       id="rect3867"
       rx="25"
       ry="25" />
    <g
       transform="translate(0,956.36218)"
       id="layer4">
      <path
         d="m 48,24 c -3.251199,8.453116 -16,20.926817 -16,32 0,8.836554 7.163444,16 16,16 8.836556,0 16,-7.163446 16,-16 C 64,46.679898 48.433493,33.970342 48,24 z"
         inkscape:connector-curvature="0"
         id="path3663"
         style="color:#000000;fill:url(#radialGradient3723);fill-opacity:1;fill-rule:nonzero;stroke:none;stroke-width:0.5;marker:none;visibility:visible;display:inline;overflow:visible;enable-background:accumulate" />
      <path
         d="M 48,24 C 45.116393,31.497377 34.773423,42.146866 32.46875,52.1875 l 30.8125,0 C 60.208022,43.403591 48.377049,32.67212 48,24 z"
         inkscape:connector-curvature="0"
         id="path3780"
         style="opacity:0.8;color:#000000;fill:url(#linearGradient3789);fill-opacity:1;fill-rule:nonzero;stroke:none;stroke-width:0.5;marker:none;visibility:visible;display:inline;overflow:visible;enable-background:accumulate" />
      <path
         d="M 47.474705,28.784687 C 41.169207,38.315974 30.831727,51.416191 34.254702,58.913998 38.368811,61.324879 30.992764,52.987563 47.474705,28.784687 z"
         inkscape:connector-curvature="0"
         id="path3732"
         style="opacity:0.4;fill:#6b7d85;fill-opacity:1;stroke:none" />
      <path
         d="M 47.315533,27.425184 C 38.484754,42.361193 33.687788,46.06794 32.924634,55.443829 33.130246,70.600017 47.315533,71.142992 47.315533,71.142992 l -1.417286,-8.830779 c 0,0 -3.456313,0.807425 -5.996208,-8.28567 -1.380475,-4.942248 7.413494,-26.601359 7.413494,-26.601359 z"
         inkscape:connector-curvature="0"
         id="path3734"
         style="opacity:0.6;fill:url(#linearGradient3750);fill-opacity:1;stroke:none" />
      <path
         d="m 59.807442,55.75445 c 0,7.875442 -6.015279,12.986846 -13.640978,12.986846 -1.871169,0 -3.659178,-0.393314 -5.28125,-1.0625 2.163405,1.416699 4.737481,2.25 7.53125,2.25 7.625699,0 13.75,-6.124302 13.75,-13.75 0,-3.412684 -1.497712,-6.15404 -7.40625,-14.46875 2.338445,5.548231 5.047228,6.183513 5.047228,14.044404 z"
         inkscape:connector-curvature="0"
         id="path3727"
         style="opacity:0.3;color:#000000;fill:#697c84;fill-opacity:1;fill-rule:nonzero;stroke:none;stroke-width:0.5;marker:none;visibility:visible;display:inline;overflow:visible;enable-background:accumulate" />
      <path
         d="M 41.973457,68.635487 40.665193,61.767103 C 33.578765,58.2784 37.067468,48.030335 37.067468,48.030335 c 0,0 -7.740559,13.30068 4.905989,20.605152 z"
         inkscape:connector-curvature="0"
         id="path3752"
         style="fill:#ffffff;stroke:none" />
      <path
         d="m 52.330543,37.673248 c 0.929847,4.894168 4.881699,8.623058 5.114161,11.497411 0.755502,5.127224 -2.498965,2.874353 -3.022004,0.466111 0,0 -1.511002,-5.437964 -2.092157,-11.963522 z"
         inkscape:connector-curvature="0"
         id="path3754"
         style="fill:url(#radialGradient3762);fill-opacity:1;stroke:none" />
      <path
         d="m 60.15625,51.5625 c 0.230563,1.193889 0.40625,2.472396 0.40625,4.1875 0,6.910999 -4.519713,11.836947 -10.65625,13.28125 6.490123,-0.744782 11.5,-6.141205 11.5,-12.84375 0,-1.475328 -0.355885,-2.793428 -1.25,-4.625 z"
         inkscape:connector-curvature="0"
         id="path3766"
         style="opacity:0.6;color:#000000;fill:#697c84;fill-opacity:1;fill-rule:nonzero;stroke:none;stroke-width:0.5;marker:none;visibility:visible;display:inline;overflow:visible;enable-background:accumulate" />
      <path
         d="m 48,24 c -0.175985,0.457561 -0.396888,0.925988 -0.625,1.40625 C 49.791544,34.954811 63,46.412435 63,55 63,63.836554 55.836556,71 47,71 42.838065,71 39.06475,69.38578 36.21875,66.78125 39.144118,69.977834 43.325379,72 48,72 56.836556,72 64,64.836554 64,56 64,46.679898 48.433493,33.970342 48,24 z"
         inkscape:connector-curvature="0"
         id="path3769"
         style="opacity:0.5;color:#000000;fill:#6a7d84;fill-opacity:1;fill-rule:nonzero;stroke:none;stroke-width:0.5;marker:none;visibility:visible;display:inline;overflow:visible;enable-background:accumulate" />
      <path
         d="m 50.368148,32.885825 c 0.386844,2.036123 2.030935,3.587454 2.127646,4.783272 0.314312,2.133081 -1.039645,1.195819 -1.257246,0.193917 0,0 -0.628622,-2.262358 -0.8704,-4.977189 z"
         inkscape:connector-curvature="0"
         id="path3774"
         style="opacity:0.5;fill:url(#radialGradient3168);fill-opacity:1;stroke:none" />
    </g>
    <rect
       ry="25"
       rx="25"
       id="rect3003"
       style="opacity:0.15;fill:#ffffff;fill-opacity:1"
       height="92"
       width="92"
       y="958.36218"
       x="-96"
       clip-path="url(#clipPath3009)"
       transform="translate(98,3.8281269e-7)" />
  </g>
</svg>

<?xml version="1.0" encoding="UTF-8" standalone="no"?>
<!-- Created with Inkscape (http://www.inkscape.org/) -->
<svg id="svg11037" xmlns:rdf="http://www.w3.org/1999/02/22-rdf-syntax-ns#" xmlns="http://www.w3.org/2000/svg" height="96" width="96" version="1.1" xmlns:cc="http://creativecommons.org/ns#" xmlns:xlink="http://www.w3.org/1999/xlink" xmlns:dc="http://purl.org/dc/elements/1.1/">
 <defs id="defs11039">
  <linearGradient id="linearGradient11642" y2="1046.1" gradientUnits="userSpaceOnUse" y1="962.62" gradientTransform="matrix(1.15 0 0 1.15 -7.1999 -150.65)" x2="48" x1="48">
   <stop id="stop3702-08" style="stop-color:#2d2d2d" offset="0"/>
   <stop id="stop3704-1" style="stop-color:#6b6b6b" offset="1"/>
  </linearGradient>
  <radialGradient id="radialGradient3723" gradientUnits="userSpaceOnUse" cy="58.667" cx="48" gradientTransform="matrix(1,0,0,1.5,0,-24)" r="16">
   <stop id="stop3719" style="stop-color:#fff" offset="0"/>
   <stop id="stop3721" style="stop-color:#93a3aa" offset="1"/>
  </radialGradient>
  <linearGradient id="linearGradient3789" y2="46.271" gradientUnits="userSpaceOnUse" x2="48.353" y1="24.342" x1="48.353">
   <stop id="stop3784" style="stop-color:#697c84" offset="0"/>
   <stop id="stop3786" style="stop-color:#697c84;stop-opacity:0" offset="1"/>
  </linearGradient>
  <linearGradient id="linearGradient3750" y2="22.683" gradientUnits="userSpaceOnUse" x2="41.864" y1="71.088" x1="41.646">
   <stop id="stop3746" style="stop-color:#fff" offset="0"/>
   <stop id="stop3748" style="stop-color:#fff;stop-opacity:0" offset="1"/>
  </linearGradient>
  <radialGradient id="radialGradient3762" xlink:href="#linearGradient3756" gradientUnits="userSpaceOnUse" cy="46.454" cx="55.598" gradientTransform="matrix(.94969 -.31318 1.2097 3.6681 -53.397 -103.87)" r="2.6137"/>
  <linearGradient id="linearGradient3756">
   <stop id="stop3758" style="stop-color:#fff" offset="0"/>
   <stop id="stop3760" style="stop-color:#fff;stop-opacity:0" offset="1"/>
  </linearGradient>
  <radialGradient id="radialGradient3168" gradientUnits="userSpaceOnUse" xlink:href="#linearGradient3756" cx="55.598" cy="46.454" r="2.6137" gradientTransform="matrix(.39510 -.13029 .50325 1.5261 6.3824 -26.002)"/>
  <clipPath id="clipPath3009" clipPathUnits="userSpaceOnUse">
   <path id="path3011" style="opacity:.15;fill:#fff" d="m-2 956.36h-96v33.562l96 25.687v-59.25z"/>
  </clipPath>
 </defs>
 <metadata id="metadata11042">
  <rdf:RDF>
   <cc:Work rdf:about="">
    <dc:format>image/svg+xml</dc:format>
    <dc:type rdf:resource="http://purl.org/dc/dcmitype/StillImage"/>
    <dc:title/>
   </cc:Work>
  </rdf:RDF>
 </metadata>
 <g id="layer1" transform="translate(0 -956.36)">
  <rect id="rect3867" style="fill:url(#linearGradient11642)" rx="25" ry="25" height="92" width="92" y="958.36" x="2"/>
  <g id="layer4" transform="translate(0 956.36)">
   <path id="path3663" style="color:#000000;fill:url(#radialGradient3723)" d="m48 24c-3.2512 8.4531-16 20.927-16 32 0 8.8366 7.1634 16 16 16s16-7.1634 16-16c0-9.32-15.567-22.03-16-32z"/>
   <path id="path3780" style="opacity:.8;color:#000000;fill:url(#linearGradient3789)" d="m48 24c-2.884 7.497-13.227 18.147-15.531 28.188h30.812c-3.073-8.784-14.904-19.516-15.281-28.188z"/>
   <path id="path3732" style="opacity:.4;fill:#6b7d85" d="m47.475 28.785c-6.306 9.531-16.643 22.631-13.22 30.129 4.114 2.411-3.262-5.926 13.22-30.129z"/>
   <path id="path3734" style="opacity:.6;fill:url(#linearGradient3750)" d="m47.316 27.425c-8.831 14.936-13.628 18.643-14.391 28.019 0.205 15.156 14.391 15.699 14.391 15.699l-1.4173-8.8308s-3.4563 0.80742-5.9962-8.2857c-1.3805-4.9422 7.4135-26.601 7.4135-26.601z"/>
   <path id="path3727" style="opacity:.3;color:#000000;fill:#697c84" d="m59.807 55.754c0 7.8754-6.0153 12.987-13.641 12.987-1.8712 0-3.6592-0.39331-5.2812-1.0625 2.1634 1.4167 4.7375 2.25 7.5312 2.25 7.6257 0 13.75-6.1243 13.75-13.75 0-3.4127-1.4977-6.154-7.4062-14.469 2.3384 5.5482 5.0472 6.1835 5.0472 14.044z"/>
   <path id="path3752" style="fill:#fff" d="m41.973 68.635-1.308-6.868c-7.086-3.489-3.598-13.737-3.598-13.737s-7.7406 13.301 4.906 20.605z"/>
   <path id="path3754" style="fill:url(#radialGradient3762)" d="m52.331 37.673c0.92985 4.8942 4.8817 8.6231 5.1142 11.497 0.7555 5.1272-2.499 2.8744-3.022 0.46611 0 0-1.511-5.438-2.0922-11.964z"/>
   <path id="path3766" style="opacity:.6;color:#000000;fill:#697c84" d="m60.156 51.562c0.23056 1.1939 0.40625 2.4724 0.40625 4.1875 0 6.911-4.5197 11.837-10.656 13.281 6.4901-0.74478 11.5-6.1412 11.5-12.844 0-1.4753-0.35588-2.7934-1.25-4.625z"/>
   <path id="path3769" style="opacity:.5;color:#000000;fill:#6a7d84" d="m48 24c-0.17598 0.45756-0.39689 0.92599-0.625 1.4062 2.417 9.549 15.625 21.006 15.625 29.594 0 8.837-7.163 16-16 16-4.162 0-7.935-1.614-10.781-4.219 2.925 3.197 7.106 5.219 11.781 5.219 8.837 0 16-7.163 16-16 0-9.32-15.567-22.03-16-32z"/>
   <path id="path3774" style="opacity:.5;fill:url(#radialGradient3168)" d="m50.368 32.886c0.38684 2.0361 2.0309 3.5875 2.1276 4.7833 0.31431 2.1331-1.0396 1.1958-1.2572 0.19392 0 0-0.62862-2.2624-0.8704-4.9772z"/>
  </g>
  <rect id="rect3003" style="opacity:.15;fill:#fff" transform="translate(98 3.8281e-7)" clip-path="url(#clipPath3009)" rx="25" ry="25" height="92" width="92" y="958.36" x="-96"/>
 </g>
</svg>
